X: 0801
M: 4/4
L: 1/8
K: D
|:\
d2fd Adfd | GeFd eAcA |\
d2fd Adfd | gbaf d/d/d d2 :|
(3faf df (3gbg eg | (3faf df geeg |\
(3faf df (3gbg eg | afge d/d/d dg |
(3faf df (3gbg eg | (3faf df geeG |\

